X: 31266
T: Paddy Goes To Bulgaria
R: jig
M: 6/8
K: Gmajor
|:F|"Gm"DGA _B3|"A" c_Bc "D"d2g|"Gm" gfd _Bcd|"A"cAG AGF|
"Gm"DGA ~_B3|"A" c_Bc "D"d2g|"Gm" gfd _Bcd|"A"cAF [1 "Gm"G2:|2 "Gm"G_Bd||
|:"Gm"g2d "D"fga|"Gm"gfd _Bcd|"A" cAA "D"~f3|agf def|
"Gm"g2a _bag|"D" f2g fd=c|"Gm"_B2G "D" AGF|DGF [1 "Gm"G_Bd:|2 "Gm" G2||

